images/037-car-11-1.svg

<svg width="79" height="79" viewBox="0 0 79 79" fill="none" xmlns="http://www.w3.org/2000/svg">
<path d="M13.146 28.1046C12.4402 28.1046 11.7502 28.3139 11.1634 28.706C10.5765 29.0981 10.1191 29.6555 9.84904 30.3076C9.57894 30.9596 9.50827 31.6772 9.64596 32.3694C9.78366 33.0616 10.1235 33.6975 10.6226 34.1966C11.1217 34.6956 11.7575 35.0355 12.4498 35.1732C13.142 35.3109 13.8595 35.2402 14.5116 34.9701C15.1637 34.7 15.721 34.2426 16.1131 33.6558C16.5053 33.0689 16.7146 32.379 16.7146 31.6732C16.7135 30.7271 16.3372 29.82 15.6682 29.151C14.9992 28.4819 14.0921 28.1056 13.146 28.1046ZM13.146 33.0815C12.8674 33.0815 12.5951 32.9989 12.3635 32.8441C12.1319 32.6893 11.9513 32.4693 11.8447 32.212C11.7381 31.9546 11.7103 31.6714 11.7646 31.3982C11.819 31.125 11.9531 30.874 12.1501 30.6771C12.3471 30.4801 12.5981 30.346 12.8713 30.2917C13.1445 30.2373 13.4277 30.2652 13.6851 30.3719C13.9424 30.4785 14.1624 30.659 14.3171 30.8907C14.4718 31.1223 14.5544 31.3946 14.5544 31.6732C14.5539 32.0466 14.4054 32.4045 14.1414 32.6685C13.8773 32.9325 13.5193 33.0809 13.146 33.0813V33.0815Z" fill="#8A1A10"/>
<path d="M4.01162 22.9902H4.01301L6.46433 22.9748C5.35401 24.032 4.65967 25.5917 4.65967 27.3686C4.65964 27.4129 4.66247 27.4572 4.66816 27.5011L6.07226 38.5727C6.08843 39.3512 6.3656 40.1016 6.8593 40.7038C7.35299 41.3059 8.03461 41.7247 8.79483 41.8932V45.2707C8.7951 45.5684 8.85431 45.8631 8.96905 46.1378C9.08379 46.4124 9.25178 46.6617 9.46333 46.8711C9.67488 47.0805 9.92581 47.246 10.2016 47.358C10.4775 47.4699 10.7727 47.5262 11.0704 47.5234H14.7158C15.0125 47.5258 15.3067 47.4692 15.5813 47.3569C15.8559 47.2446 16.1055 47.0788 16.3154 46.8692C16.5254 46.6596 16.6917 46.4103 16.8045 46.1359C16.9173 45.8615 16.9744 45.5674 16.9726 45.2707V41.9688H45.3632V66.1847C45.3564 66.7934 45.4709 67.3974 45.7 67.9614C45.929 68.5254 46.2681 69.0382 46.6973 69.4699C47.1266 69.9015 47.6374 70.2434 48.2002 70.4756C48.7629 70.7078 49.3662 70.8256 49.975 70.8223H71.3818C71.9945 70.8271 72.602 70.7107 73.1696 70.48C73.7371 70.2492 74.2535 69.9086 74.689 69.4776C75.1245 69.0467 75.4705 68.5339 75.7072 67.9688C75.9439 67.4037 76.0666 66.7974 76.0683 66.1847V34.6116C76.0665 33.3699 75.572 32.1798 74.6932 31.3026C73.8145 30.4255 72.6234 29.9331 71.3818 29.9336H67.4864C67.0886 28.2363 65.6163 27.1563 63.8651 27.1563H60.5954C60.5719 26.3757 60.395 25.6074 60.0747 24.8953C59.7543 24.1831 59.2969 23.541 58.7284 23.0057L61.2516 22.9859C61.3984 22.9838 61.5433 22.9522 61.6777 22.893C61.812 22.8337 61.9331 22.7481 62.0337 22.6412C62.1343 22.5342 62.2124 22.4082 62.2633 22.2704C62.3143 22.1327 62.337 21.9862 62.3301 21.8395C62.276 21.0866 62.1287 20.3434 61.8918 19.6267C61.3533 18.0112 59.6699 16.9663 57.6023 16.9663C56.4551 16.9663 54.4304 16.9586 53.4021 16.9548L51.5159 13.5034C50.1268 11.0128 48.0942 8.17773 44.6826 8.17773H20.782C18.0063 8.17773 15.553 10.0561 13.867 13.5132L11.9022 16.9824C10.8724 16.9804 8.81627 16.9705 7.66121 16.9705C5.59363 16.9705 3.90963 18.0112 3.37175 19.6266C3.13479 20.3419 2.98755 21.084 2.9334 21.8356C2.92631 21.9835 2.94899 22.1313 3.00009 22.2702C3.05119 22.4092 3.12967 22.5364 3.23088 22.6445C3.33107 22.7516 3.45186 22.8375 3.58601 22.8969C3.72016 22.9563 3.86492 22.9881 4.01162 22.9902ZM14.8124 45.2707C14.8124 45.3372 14.7815 45.3633 14.7158 45.3633H11.0704C11.004 45.3633 10.955 45.3377 10.955 45.2707V41.9688H14.8124V45.2707ZM45.3632 34.6111V39.8086H9.55088C9.37772 39.8089 9.20619 39.7751 9.04609 39.7091C8.88599 39.6432 8.74046 39.5463 8.61781 39.4241C8.49515 39.3018 8.39778 39.1566 8.33126 38.9967C8.26474 38.8369 8.23036 38.6655 8.2301 38.4923C8.23008 38.4477 8.22719 38.4032 8.22146 38.359L6.82075 27.2967C6.8493 25.1394 8.30756 23.8341 9.77523 23.7347C9.82768 23.7476 9.88101 23.7566 9.93477 23.7617H55.2334C55.2414 23.7617 55.2488 23.7872 55.2573 23.7872C57.1188 23.7872 58.3087 25.459 58.4306 27.1563H57.4917C55.7404 27.1563 54.2681 28.2363 53.8703 29.9336H49.975C49.3641 29.9348 48.7595 30.0571 48.1962 30.2934C47.6329 30.5298 47.122 30.8754 46.6931 31.3105C46.2643 31.7455 45.9259 32.2612 45.6976 32.8279C45.4694 33.3945 45.3557 34.0007 45.3632 34.6116V34.6111ZM39.918 21.6016C40.1231 20.7514 40.6082 19.9949 41.2953 19.4539C41.9824 18.9128 42.8315 18.6186 43.706 18.6186C44.5806 18.6186 45.4297 18.9128 46.1168 19.4539C46.8039 19.9949 47.289 20.7514 47.494 21.6016H39.918ZM67.4455 32.0938H71.3818C71.713 32.0932 72.0411 32.1579 72.3473 32.2841C72.6535 32.4103 72.9318 32.5956 73.1664 32.8294C73.401 33.0632 73.5873 33.3409 73.7145 33.6467C73.8418 33.9525 73.9076 34.2804 73.9081 34.6116V66.1847C73.9068 66.5138 73.8402 66.8394 73.7121 67.1425C73.5841 67.4457 73.3972 67.7205 73.1622 67.9509C72.9272 68.1813 72.6489 68.3628 72.3433 68.4849C72.0377 68.607 71.7109 68.6672 71.3818 68.6621H49.975C49.6498 68.6658 49.3272 68.604 49.0264 68.4805C48.7256 68.357 48.4528 68.1742 48.224 67.9431C47.9953 67.7119 47.8154 67.4372 47.695 67.1351C47.5746 66.833 47.5163 66.5098 47.5233 66.1847V34.6116C47.5233 33.2186 48.582 32.0938 49.975 32.0938H53.9112C54.142 32.8606 54.6163 33.5314 55.2623 34.0047C55.9083 34.478 56.6909 34.7279 57.4917 34.7168H63.8651C64.6658 34.7279 65.4484 34.478 66.0944 34.0047C66.7405 33.5314 67.2147 32.8606 67.4455 32.0938ZM63.854 29.3164C64.2698 29.3164 64.6686 29.4816 64.9626 29.7756C65.2566 30.0696 65.4218 30.4684 65.4218 30.8842V31.1431C65.4218 31.5589 65.2566 31.9577 64.9626 32.2517C64.6686 32.5458 64.2698 32.7109 63.854 32.7109H57.4232C57.0074 32.7109 56.6086 32.5458 56.3146 32.2517C56.0205 31.9577 55.8554 31.5589 55.8554 31.1431V30.8842C55.8554 30.4684 56.0205 30.0696 56.3146 29.7756C56.6086 29.4816 57.0074 29.3164 57.4232 29.3164H63.854ZM57.6012 19.1245C58.7058 19.1245 59.6071 19.5996 59.8421 20.3067C59.8993 20.4786 59.9469 20.6462 59.9864 20.8065L55.4922 20.808L54.5747 19.1174C55.5903 19.1211 56.8063 19.1245 57.6012 19.1245ZM15.7644 14.5348C15.7755 14.5152 15.7859 14.5129 15.7953 14.4928C16.5515 12.9349 18.2042 10.3379 20.7817 10.3379H44.6823C46.4912 10.3379 47.9708 11.5956 49.623 14.5581L53.4503 21.6016H49.694C49.4751 20.1702 48.7508 18.8646 47.6523 17.9213C46.5538 16.9779 45.1537 16.4593 43.7057 16.4593C42.2577 16.4593 40.8577 16.9779 39.7591 17.9213C38.6606 18.8646 37.9363 20.1702 37.7175 21.6016H11.7845L15.7644 14.5348ZM5.42035 20.3067C5.65612 19.5996 6.55659 19.1245 7.66121 19.1245C8.45275 19.1245 9.66707 19.1263 10.6845 19.128L9.7419 20.7992L5.27655 20.8049C5.31589 20.6457 5.36326 20.478 5.42035 20.3067Z" fill="#8A1A10"/>
<path d="M44.3839 29.9825C43.8107 28.298 41.9673 27.002 40.1872 27.002H25.013C23.2273 27.002 21.3944 28.3067 20.8399 30.0043L20.08 32.3187C20.027 32.4855 20.0132 32.6623 20.0397 32.8354C20.0661 33.0084 20.1321 33.173 20.2324 33.3164C20.3311 33.4582 20.4615 33.5749 20.6133 33.6573C20.7651 33.7397 20.934 33.7855 21.1067 33.791H44.156C44.3301 33.7844 44.5003 33.737 44.6528 33.6527C44.8053 33.5684 44.9359 33.4495 45.0341 33.3056C45.1341 33.1651 45.1993 33.0029 45.2245 32.8322C45.2496 32.6616 45.2338 32.4875 45.1785 32.3241L44.3839 29.9825ZM22.5956 31.6309L22.8934 30.7091C23.1557 29.9046 24.1665 29.1621 25.013 29.1621H40.1872C41.0389 29.1621 42.0645 29.906 42.3387 30.7125L42.6473 31.6309H22.5956Z" fill="#8A1A10"/>
<path d="M41.5294 35.6426H23.6096C23.3232 35.6426 23.0484 35.7564 22.8459 35.9589C22.6433 36.1615 22.5295 36.4362 22.5295 36.7227C22.5295 37.0091 22.6433 37.2838 22.8459 37.4864C23.0484 37.6889 23.3232 37.8027 23.6096 37.8027H41.5294C41.8158 37.8027 42.0905 37.6889 42.2931 37.4864C42.4956 37.2838 42.6094 37.0091 42.6094 36.7227C42.6094 36.4362 42.4956 36.1615 42.2931 35.9589C42.0905 35.7564 41.8158 35.6426 41.5294 35.6426Z" fill="#8A1A10"/>
<path d="M51.234 45.6719H52.3788C52.6653 45.6719 52.94 45.5581 53.1426 45.3555C53.3451 45.153 53.4589 44.8782 53.4589 44.5918C53.4589 44.3053 53.3451 44.0306 53.1426 43.8281C52.94 43.6255 52.6653 43.5117 52.3788 43.5117H52.3066V40.5801H55.3617C55.5054 40.8887 55.876 41.2815 56.3521 41.2815C56.6386 41.2722 56.9096 41.1496 57.1058 40.9407C57.302 40.7317 57.4072 40.4535 57.3984 40.167V39.4313C57.4047 39.2967 57.3828 39.1623 57.3341 39.0367C57.2854 38.911 57.211 38.797 57.1156 38.7018C57.0203 38.6065 56.9061 38.5323 56.7804 38.4838C56.6547 38.4352 56.5202 38.4135 56.3856 38.4199H51.234C50.6375 38.4199 50.1465 38.8347 50.1465 39.4313V44.5827C50.1478 44.8709 50.2627 45.1469 50.4663 45.3508C50.6699 45.5548 50.9458 45.6701 51.234 45.6719Z" fill="#8A1A10"/>
<path d="M51.2266 55.5469H56.3184C56.6048 55.5469 56.8795 55.4331 57.0821 55.2305C57.2846 55.028 57.3984 54.7533 57.3984 54.4668V49.375C57.3984 49.0885 57.2846 48.8138 57.0821 48.6113C56.8795 48.4087 56.6048 48.2949 56.3184 48.2949H51.2266C50.9401 48.2949 50.6654 48.4087 50.4628 48.6113C50.2603 48.8138 50.1465 49.0885 50.1465 49.375V54.4668C50.1465 54.7533 50.2603 55.028 50.4628 55.2305C50.6654 55.4331 50.9401 55.5469 51.2266 55.5469ZM52.3066 50.4551H55.2383V53.541H52.3066V50.4551Z" fill="#8A1A10"/>
<path d="M52.379 63.5703H52.3066V60.4844H55.3059C55.3022 60.6246 55.3265 60.7641 55.3773 60.8948C55.4281 61.0255 55.5044 61.1448 55.6017 61.2457C55.6991 61.3466 55.8156 61.4271 55.9444 61.4825C56.0732 61.5379 56.2118 61.5672 56.352 61.5685C56.4904 61.5713 56.628 61.546 56.7563 61.4942C56.8847 61.4424 57.0013 61.3652 57.0991 61.2672C57.1969 61.1691 57.2738 61.0523 57.3252 60.9238C57.3767 60.7953 57.4016 60.6577 57.3984 60.5193V59.4656C57.3984 58.8689 56.9818 58.3247 56.3856 58.3247H51.234C50.9407 58.3382 50.664 58.4643 50.4614 58.6767C50.2588 58.8892 50.146 59.1716 50.1465 59.4651V64.6165C50.1469 64.9072 50.2607 65.1864 50.4639 65.3945C50.667 65.6025 50.9433 65.7231 51.234 65.7305H52.379C52.6655 65.7305 52.9402 65.6167 53.1427 65.4141C53.3453 65.2116 53.4591 64.9369 53.4591 64.6504C53.4591 64.364 53.3453 64.0892 53.1427 63.8867C52.9402 63.6841 52.6655 63.5703 52.379 63.5703Z" fill="#8A1A10"/>
<path d="M58.913 39.6852L55.7011 42.8972L54.7172 41.9132C54.6169 41.8129 54.4978 41.7334 54.3668 41.6791C54.2357 41.6248 54.0953 41.5969 53.9534 41.5969C53.8116 41.5969 53.6711 41.6248 53.5401 41.6791C53.409 41.7334 53.29 41.8129 53.1897 41.9132C53.0894 42.0135 53.0098 42.1326 52.9555 42.2636C52.9012 42.3947 52.8733 42.5352 52.8733 42.677C52.8733 42.8188 52.9012 42.9593 52.9555 43.0903C53.0098 43.2214 53.0894 43.3405 53.1897 43.4408L54.9372 45.1883C55.0375 45.2886 55.1566 45.3682 55.2876 45.4225C55.4187 45.4768 55.5591 45.5047 55.701 45.5047C55.8428 45.5047 55.9833 45.4768 56.1143 45.4225C56.2454 45.3682 56.3645 45.2886 56.4648 45.1883L60.441 41.2119C60.5413 41.1116 60.6208 40.9926 60.6751 40.8615C60.7294 40.7305 60.7573 40.59 60.7573 40.4482C60.7573 40.3063 60.7294 40.1659 60.6751 40.0348C60.6208 39.9038 60.5413 39.7847 60.441 39.6844C60.3407 39.5841 60.2216 39.5045 60.0906 39.4503C59.9595 39.396 59.8191 39.368 59.6772 39.368C59.5354 39.368 59.3949 39.396 59.2639 39.4503C59.1328 39.5045 59.0137 39.5841 58.9134 39.6844L58.913 39.6852Z" fill="#8A1A10"/>
<path d="M58.913 59.8764L55.7011 63.089L54.7172 62.1051C54.6169 62.0048 54.4978 61.9252 54.3668 61.8709C54.2357 61.8167 54.0953 61.7887 53.9534 61.7887C53.8116 61.7887 53.6711 61.8167 53.5401 61.8709C53.409 61.9252 53.29 62.0048 53.1897 62.1051C53.0894 62.2054 53.0098 62.3245 52.9555 62.4555C52.9012 62.5866 52.8733 62.727 52.8733 62.8689C52.8733 63.0107 52.9012 63.1512 52.9555 63.2822C53.0098 63.4133 53.0894 63.5323 53.1897 63.6326L54.9372 65.3802C55.0375 65.4805 55.1566 65.5601 55.2876 65.6143C55.4187 65.6686 55.5591 65.6966 55.701 65.6966C55.8428 65.6966 55.9833 65.6686 56.1143 65.6143C56.2454 65.5601 56.3645 65.4805 56.4648 65.3802L60.4411 61.404C60.6437 61.2014 60.7575 60.9267 60.7575 60.6402C60.7575 60.3537 60.6437 60.079 60.4411 59.8764C60.2386 59.6739 59.9638 59.5601 59.6774 59.5601C59.3909 59.5601 59.1162 59.6739 58.9136 59.8764H58.913Z" fill="#8A1A10"/>
<path d="M62.1743 41.9688C62.1743 42.2552 62.2881 42.5299 62.4907 42.7325C62.6932 42.935 62.9679 43.0488 63.2544 43.0488H70.1231C70.4095 43.0488 70.6842 42.935 70.8868 42.7325C71.0894 42.5299 71.2031 42.2552 71.2031 41.9688C71.2031 41.6823 71.0894 41.4076 70.8868 41.205C70.6842 41.0025 70.4095 40.8887 70.1231 40.8887H63.2544C62.9679 40.8887 62.6932 41.0025 62.4907 41.205C62.2881 41.4076 62.1743 41.6823 62.1743 41.9688Z" fill="#8A1A10"/>
<path d="M70.1231 50.918H63.2544C62.9679 50.918 62.6932 51.0318 62.4907 51.2343C62.2881 51.4369 62.1743 51.7116 62.1743 51.998C62.1743 52.2845 62.2881 52.5592 62.4907 52.7618C62.6932 52.9643 62.9679 53.0781 63.2544 53.0781H70.1231C70.4095 53.0781 70.6842 52.9643 70.8868 52.7618C71.0894 52.5592 71.2031 52.2845 71.2031 51.998C71.2031 51.7116 71.0894 51.4369 70.8868 51.2343C70.6842 51.0318 70.4095 50.918 70.1231 50.918Z" fill="#8A1A10"/>
<path d="M70.1231 60.9473H63.2544C62.9679 60.9473 62.6932 61.0611 62.4907 61.2636C62.2881 61.4662 62.1743 61.7409 62.1743 62.0273C62.1743 62.3138 62.2881 62.5885 62.4907 62.7911C62.6932 62.9936 62.9679 63.1074 63.2544 63.1074H70.1231C70.4095 63.1074 70.6842 62.9936 70.8868 62.7911C71.0894 62.5885 71.2031 62.3138 71.2031 62.0273C71.2031 61.7409 71.0894 61.4662 70.8868 61.2636C70.6842 61.0611 70.4095 60.9473 70.1231 60.9473Z" fill="#8A1A10"/>
</svg>

<svg width="79" height="79" fill="none" xmlns="http://www.w3.org/2000/svg"><path d="M13.146 28.105a3.569 3.569 0 100 7.137 3.569 3.569 0 000-7.137zm0 4.976a1.408 1.408 0 110-2.815 1.408 1.408 0 010 2.815z" fill="#8A1A10"/><path d="M4.012 22.99h.001l2.451-.015c-1.11 1.057-1.804 2.617-1.804 4.394 0 .044.002.088.008.132l1.404 11.072a3.475 3.475 0 002.723 3.32v3.378a2.255 2.255 0 002.275 2.252h3.646a2.239 2.239 0 002.257-2.252v-3.302h28.39v24.216a4.585 4.585 0 004.612 4.637h21.407a4.651 4.651 0 004.686-4.637V34.612a4.685 4.685 0 00-4.686-4.678h-3.896c-.397-1.698-1.87-2.778-3.62-2.778h-3.27a5.948 5.948 0 00-1.868-4.15l2.524-.02a1.096 1.096 0 001.078-1.146 9.137 9.137 0 00-.438-2.213c-.539-1.616-2.222-2.66-4.29-2.66-1.147 0-3.172-.008-4.2-.012l-1.886-3.452c-1.39-2.49-3.422-5.325-6.833-5.325H20.782c-2.776 0-5.229 1.878-6.915 5.335l-1.965 3.47c-1.03-.003-3.086-.012-4.24-.012-2.068 0-3.752 1.04-4.29 2.656a9.106 9.106 0 00-.439 2.209 1.105 1.105 0 00.653 1.06c.134.06.279.092.426.094zm10.8 22.28c0 .067-.03.093-.096.093H11.07c-.066 0-.115-.025-.115-.092v-3.302h3.857v3.302zm30.551-10.659v5.198H9.551a1.318 1.318 0 01-1.32-1.317.992.992 0 00-.01-.133l-1.4-11.062c.028-2.158 1.487-3.463 2.954-3.562.053.013.106.022.16.027h45.298c.008 0 .016.025.024.025 1.862 0 3.052 1.672 3.174 3.37h-.94c-1.75 0-3.223 1.08-3.62 2.777h-3.896a4.622 4.622 0 00-4.612 4.678zm-5.445-13.01a3.897 3.897 0 017.576 0h-7.576zm27.527 10.493h3.937a2.522 2.522 0 012.526 2.518v31.573a2.486 2.486 0 01-2.526 2.477H49.975a2.425 2.425 0 01-2.452-2.477V34.612c0-1.393 1.059-2.518 2.452-2.518h3.936a3.686 3.686 0 003.58 2.623h6.374a3.686 3.686 0 003.58-2.623zm-3.591-2.778a1.568 1.568 0 011.568 1.568v.26a1.568 1.568 0 01-1.568 1.567h-6.43a1.567 1.567 0 01-1.569-1.568v-.259a1.567 1.567 0 011.568-1.568h6.431zm-6.253-10.191c1.105 0 2.006.475 2.241 1.182.057.172.105.34.144.5l-4.494.001-.917-1.69c1.015.003 2.231.007 3.026.007zm-41.837-4.59c.011-.02.022-.022.031-.042.757-1.558 2.41-4.155 4.987-4.155h23.9c1.81 0 3.289 1.258 4.941 4.22l3.827 7.044h-3.756a6.058 6.058 0 00-11.977 0H11.786l3.98-7.067zM5.42 20.307c.236-.707 1.137-1.182 2.241-1.182l3.024.003-.943 1.671-4.465.006c.039-.16.086-.327.143-.498z" fill="#8A1A10"/><path d="M44.384 29.983c-.573-1.685-2.417-2.981-4.197-2.981H25.013c-1.786 0-3.619 1.305-4.173 3.002l-.76 2.315a1.138 1.138 0 00.533 1.338c.152.083.321.129.494.134h23.049a1.114 1.114 0 00.878-.485 1.091 1.091 0 00.145-.982l-.795-2.341zM22.596 31.63l.297-.922c.263-.804 1.273-1.547 2.12-1.547h15.174c.852 0 1.878.744 2.152 1.55l.308.919H22.596zm18.934 4.013H23.61a1.08 1.08 0 000 2.16h17.92a1.08 1.08 0 000-2.16zm9.704 10.029h1.145a1.08 1.08 0 100-2.16h-.072V40.58h3.055c.143.309.514.702.99.702a1.082 1.082 0 001.046-1.115v-.736a.966.966 0 00-1.012-1.011h-5.152c-.596 0-1.087.415-1.087 1.011v5.152a1.094 1.094 0 001.087 1.089zm-.007 9.875h5.091a1.08 1.08 0 001.08-1.08v-5.092a1.08 1.08 0 00-1.08-1.08h-5.091a1.08 1.08 0 00-1.08 1.08v5.092a1.08 1.08 0 001.08 1.08zm1.08-5.092h2.931v3.086h-2.931v-3.086zm.072 13.115h-.072v-3.086h2.999a1.056 1.056 0 001.046 1.084 1.025 1.025 0 001.046-1.049v-1.053c0-.597-.416-1.141-1.012-1.141h-5.152a1.14 1.14 0 00-1.087 1.14v5.151a1.116 1.116 0 001.087 1.115h1.145a1.08 1.08 0 100-2.16z" fill="#8A1A10"/><path d="M58.913 39.685l-3.212 3.212-.984-.984a1.08 1.08 0 00-1.527 1.528l1.747 1.747a1.081 1.081 0 001.528 0l3.976-3.976a1.08 1.08 0 10-1.528-1.528v.001zm0 20.191l-3.212 3.213-.984-.984a1.081 1.081 0 00-1.527 1.528l1.747 1.747a1.08 1.08 0 001.528 0l3.976-3.976a1.08 1.08 0 10-1.527-1.528h-.001zm3.261-17.907a1.08 1.08 0 001.08 1.08h6.87a1.08 1.08 0 000-2.16h-6.87a1.08 1.08 0 00-1.08 1.08zm7.949 8.949h-6.869a1.08 1.08 0 100 2.16h6.87a1.08 1.08 0 000-2.16zm0 10.029h-6.869a1.08 1.08 0 100 2.16h6.87a1.08 1.08 0 000-2.16z" fill="#8A1A10"/></svg>
